docs/img/added-icon.832a5d2c.svg

<svg fill="#666" viewBox="0 0 20 20" xmlns="http://www.w3.org/2000/svg"><path d="m17.025 2.975a9.935 9.935 0 0 0 -14.179 13.925c.042.043.085.087.129.129a9.935 9.935 0 0 0 14.179-13.929c-.042-.039-.085-.083-.129-.125zm-11.611 7.825v-1.534h3.822v-3.836h1.528v3.836h3.822v1.534h-3.822v3.8h-1.528v-3.8z"/></svg>

<!--
  This source file is part of the Swift.org open source project

  Copyright (c) 2021 Apple Inc. and the Swift project authors
  Licensed under Apache License v2.0 with Runtime Library Exception

  See https://swift.org/LICENSE.txt for license information
  See https://swift.org/CONTRIBUTORS.txt for Swift project authors
-->

<svg xmlns="http://www.w3.org/2000/svg" fill="rgb(102, 102, 102)" viewBox="0 0 20 20"><path d="M17.025,2.975A9.935,9.935,0,0,0,2.846,16.9c.042.043.085.087.129.129A9.935,9.935,0,0,0,17.154,3.1C17.112,3.061,17.069,3.017,17.025,2.975ZM5.414,10.8V9.266H9.236V5.43h1.528V9.266h3.822V10.8H10.764V14.6H9.236V10.8Z"/></svg>
